Obsidian/actions/22s/fcitx-punc-inactive.svg

<svg height="22" width="22" xmlns="http://www.w3.org/2000/svg"><path d="m3 3a3 3 0 0 0 -3 3 3 3 0 0 0 3 3 3 3 0 0 0 3-3 3 3 0 0 0 -3-3zm9 0a3 3 0 0 0 -3 3 3 3 0 0 0 3 3 3 3 0 0 0 .701-.0879c-.541 1.2309-1.766 2.0879-3.201 2.0879h-.5v2h.5996c2.9914 0 5.4004-2.453 5.4004-5.5v-1.5a3 3 0 0 0 -3-3zm-9 2a1 1 0 0 1 1 1 1 1 0 0 1 -1 1 1 1 0 0 1 -1-1 1 1 0 0 1 1-1zm9 0a1 1 0 0 1 1 1 1 1 0 0 1 -1 1 1 1 0 0 1 -1-1 1 1 0 0 1 1-1z" fill="#bebebe" opacity=".3" transform="translate(3 3)"/></svg>

<svg xmlns="http://www.w3.org/2000/svg" width="22" height="22" version="1.1">
 <defs>
  <style id="current-color-scheme" type="text/css">
   .ColorScheme-Text { color:#bebebe; } .ColorScheme-Highlight { color:#4285f4; }
  </style>
 </defs>
 <g transform="matrix(1,0,0,1,3,3)">
  <path class="ColorScheme-Text" d="M 3 3 A 3 3 0 0 0 0 6 A 3 3 0 0 0 3 9 A 3 3 0 0 0 6 6 A 3 3 0 0 0 3 3 z M 12 3 A 3 3 0 0 0 9 6 A 3 3 0 0 0 12 9 A 3 3 0 0 0 12.701 8.9121 C 12.16 10.143 10.935 11 9.5 11 L 9 11 L 9 13 L 9.5996 13 C 12.591 13 15 10.547 15 7.5 L 15 6 A 3 3 0 0 0 12 3 z M 3 5 A 1 1 0 0 1 4 6 A 1 1 0 0 1 3 7 A 1 1 0 0 1 2 6 A 1 1 0 0 1 3 5 z M 12 5 A 1 1 0 0 1 13 6 A 1 1 0 0 1 12 7 A 1 1 0 0 1 11 6 A 1 1 0 0 1 12 5 z" style="opacity:0.3;fill:currentColor"/>
 </g>
</svg>
